X:1
T:Title
%%score { ( 1 4 ) | ( 2 3 ) }
L:1/8
M:4/4
K:F
V:1 treble nm="Grand Piano"
V:4 treble 
V:2 bass 
V:3 bass 
V:1
 z4 z2[Q:1/4=94] F2 | [CA]3 A [=B,_A]=A[DB]A | [CA]6 F2 | [B,G]3 G [A,^F]G[Ec]B |[M:3/4] [CA]6 | %5
[M:1/4] F2 |[M:4/4] [CA]3 A [=B,_A]=A[Fd]c | [DB]6 G2 | [A,F]F[G,E]F [CA]2 G2 | F6 z2 | %10
 c3 c/c/ =Bcdc | [CEB]6 [CEB]2 | [CGB]3 [CGB] [C^FA][GB][CAc][GB] |[M:3/4] [CFA]6 |[M:1/4] [A,F]2 | %15
[M:4/4] [B,DF]3 [B,DF] [B,^CE][DF][DG][D^FA] | [DGB]6 D2 | FFEF [FA]2 [EG]2 |[M:3/4] [CF]6 |] %19
V:2
 z4 z2 A,2 | F,,C, z C z C z C | F,,C,F,C, F,,2 A,2 | C,,G,, z B, z B, z D | %4
[M:3/4] F,,C, F,C, F,,2 |[M:1/4] A,2 |[M:4/4] F,,C, z C z C z _E | G,,D,G,D, G,,2 B,2 | %8
 z A, z A, z2 B,2 | [F,A,]6 z2 | [F,A,F]3 [F,A,F]/[F,A,F]/ [_A,F][=A,F][B,F][A,F] | %11
 G,2 C,2 G,2 G,2 | C,3 C, z C z C |[M:3/4] F,2 C,2 F,2 |[M:1/4] z _E |[M:4/4] B,,3 B,, z B,B,A, | %16
 G,2 D,2 G,2 [B,,B,]2 | [C,A,C][C,A,C][C,G,C][C,A,C] [C,C]2 [C,B,]2 |[M:3/4] [F,A,]6 |] %19
V:3
 x8 | z2 F,2 F,2 F,2 | x8 | z2 C,2 C,2 C,2 |[M:3/4] x6 |[M:1/4] x2 |[M:4/4] z2 F,2 F,2 F,2 | x8 | %8
 C,2 C,2 C,4 | x8 | z4 F,2 F,2 | x8 | z4 C,2 C,2 |[M:3/4] x6 |[M:1/4] F,2 |[M:4/4] z4 B,,2 z2 | %16
 x8 | x8 |[M:3/4] x6 |] %19
V:4
 x8 | x8 | x8 | x8 |[M:3/4] x6 |[M:1/4] x2 |[M:4/4] x8 | x8 | x8 | x8 | x8 | x8 | x8 |[M:3/4] x6 | %14
[M:1/4] C z |[M:4/4] x8 | x8 | x8 |[M:3/4] x6 |] %19

